X: 1573
T: Bantry Bay
R:hornpipe
N:"Collected by F. O'Neill"
B:O'Neill's 1573
Z:Transcribed by Michael Hogan
M:C|
L:1/8
K:G
(dc) | BGAG EGDE | G2 G>G G3 B | AGAB cBAG | Bdde d3d |
edef gage | dedB A2 (GA) | BGAG EGDE | G2 G>G G2 :|
|:(Bc) | dBGB dBGB | e2 e>d e2 de | f2 fe defd | g2 gf g2 z2 |
d2ef gage | dedB A2 (GA) | BGAG EGDE | G2 G>G G2 :||


